web/ui/src/components/data/empty/svgs/no-data.svg

<svg height="98" viewBox="0 0 98 98" width="98" xmlns="http://www.w3.org/2000/svg"><g fill="none" fill-rule="evenodd"><path d="m0 0h98v98h-98z" fill="#000" fill-rule="nonzero" opacity="0"/><g fill="#f6fafe"><path d="m46.5628551 19.3719415c0 1.3098428-1.0714188 2.3702419-2.3889976 2.3702419h-9.55875c-.6337491.0004278-1.2417069-.2490884-1.6901014-.6936468-.4479776-.4447162-.6998826-1.0477022-.7004187-1.6765951 0-1.3094651 1.0703722-2.3719415 2.3906153-2.3719415h9.5587499c1.3174837-.0000945 2.3889025 1.0624764 2.3889025 2.3719415z"/><path d="m59.5727918 19.3719415c0 1.3098428-.7531333 2.3702413-1.6824892 2.3702413h-6.7241525c-.9304026 0-1.6824892-1.061343-1.6824892-2.3702413 0-1.3094651.7519914-2.3719415 1.6824892-2.3719415h6.7241525c.9293559-.0000945 1.6824892 1.0624764 1.6824892 2.3719415z"/><path d="m74.175679 28.9912772c0 .7342468-.2936925 1.4384502-.816831 1.9575526-.5231385.5191023-1.2326754.8105385-1.9723787.8101379h-27.6127287c-1.5393796 0-2.787497-1.2389108-2.787497-2.7675961 0-1.5279296 1.2482125-2.7669348 2.787497-2.7669348h27.6128238c.7396068-.0003579 1.449055.2909839 1.9722291.8099155.5229237.5189926.8168855 1.2229064.8168855 1.9569249z"/><path d="m81.6104314 38.874036c0 1.4560526-1.1888372 2.6366869-2.6561862 2.6366869h-41.6849496c-1.4668733 0-2.6557105-1.1800676-2.6557105-2.6361202 0-1.4554859 1.1889324-2.6360257 2.6557105-2.6360257h41.683998c1.4667782 0 2.6561863 1.1795953 2.6571378 2.635459z"/><path d="m84 48.2315543c0 .7341327-.2935826 1.4382417-.8164098 1.9574916-.5227679.5193145-1.2320655.8110526-1.9716581.8109541h-7.7014653c-1.5404263 0-2.7886388-1.2394771-2.7886388-2.7679735 0-1.5286852 1.2481173-2.7681623 2.7886388-2.7681623h7.7014653c.7393361 0 1.4485088.2916639 1.9716581.8103874.5226478.5192916.8164098 1.2232664.8164098 1.9573027z"/><path d="m68.5995433 48.2315543c0 1.5293464-1.8546204 2.7684457-4.147609 2.7684457h-53.3072751c-2.28889703 0-4.1446592-1.2378715-4.1446592-2.7684457 0-1.5287797 1.85566702-2.7676901 4.1446592-2.7676901h53.3072751c2.2929886.0000945 4.147609 1.2390048 4.147609 2.7676901z"/><path d="m52.0798654 59.2579001c0 .8645044-.3358408 1.6936453-.9336605 2.3052869-.5981478.6113153-1.4094262.9547541-2.2553543.9547541h-45.70184752c-1.13911323-.0001256-2.19167608-.6211508-2.76136873-1.629242-.57017913-1.008148-.57017913-2.2507251 0-3.2588732.56941806-1.0084481 1.62209028-1.6297604 2.76136873-1.6298259h45.70184752c.8456752-.0001368 1.6567586.3430944 2.2547829.9541703.5982324.6107709.9342319 1.439543.9342319 2.3037298zm40.9201346 11.5126157c-.0005713 1.7833884-1.4147266 3.2289003-3.1598765 3.2294842h-38.0543064c-1.7133456-.0456406-3.078461-1.4783069-3.078461-3.2294842 0-1.7512745 1.3651154-3.1836489 3.078461-3.2294841h38.0533541c1.7450548.0009731 3.1597813 1.4461931 3.1608288 3.2294841z"/><path d="m87.2029707 80.5002087c0 .663573-.2412269 1.2999435-.6706667 1.7689091-.4296142.4683423-1.0116577.7312019-1.6183728.7308822h-42.6274719c-1.26278 0-2.2864593-1.1192023-2.2864593-2.4997913 0-1.3805891 1.0236793-2.5002087 2.2864593-2.5002087h42.6275674c1.2642134 0 2.288944 1.1189928 2.288944 2.5002087zm8.7970293 0c0 1.3799622-1.0232015 2.4991639-2.2859815 2.4997913h-1.8257462c-1.2633534 0-2.2870327-1.1192023-2.2870327-2.4997913 0-1.3805891 1.0236793-2.5002087 2.2870327-2.5002087h1.8256507c1.2613465 0 2.286077 1.1189928 2.286077 2.5002087z"/></g><g transform="translate(25 26)"><path d="m7.42187499 6.93749998h35.15625001c1.0546875 0 1.7578125.70312498 1.7578125 1.75781252v26.3671875h-38.67187499v-26.3671875c0-1.05468749.70312498-1.75781252 1.75781248-1.75781252z" fill="#e2f1ff" fill-rule="nonzero"/><path d="m9 0h32v3h-32z" fill="#e2f1ff"/><path d="m3.02734376 19.2421875h11.07421874l3.3398437 7.734375h14.9414063l4.0429688-7.734375h10.5468749c1.40625 0 2.6367188 1.2304687 2.6367188 2.6367187v21.09375c0 1.4062501-1.2304688 2.6367188-2.6367188 2.6367188h-43.94531244c-1.40625001 0-2.63671876-1.2304687-2.63671876-2.6367188v-21.09375c.17578126-1.40625 1.23046875-2.6367187 2.63671876-2.6367187z" fill="#fff" fill-rule="nonzero" stroke="#a5d2ff"/><path d="m9 35h32v3h-32z" fill="#edf6ff"/></g><path d="m44.122 43v-3.132h.024l2.142 3.132h.684v-4.284h-.708v3.09h-.024l-2.118-3.09h-.702v4.284zm5.472.084c.564 0 1.002-.144 1.314-.432.312-.296.468-.722.468-1.278v-2.658h-.702v2.67c0 .364-.086.638-.258.822-.176.176-.45.264-.822.264-.38 0-.654-.088-.822-.264-.172-.176-.258-.45-.258-.822v-2.67h-.702v2.658c0 .556.158.984.474 1.284.304.284.74.426 1.308.426zm5.634-.084v-.6h-2.316v-3.684h-.696v4.284zm3.552 0v-.6h-2.316v-3.684h-.696v4.284z" fill="#65a4e2" fill-rule="nonzero"/></g></svg>

<?xml version="1.0" encoding="UTF-8"?>
<svg width="98px" height="98px" viewBox="0 0 98 98" version="1.1" xmlns="http://www.w3.org/2000/svg" xmlns:xlink="http://www.w3.org/1999/xlink">
    <title>无数据 2</title>
    <g id="页面-1" stroke="none" stroke-width="1" fill="none" fill-rule="evenodd">
        <g id="建木自动化-首页搜索结果为空" transform="translate(-912.000000, -434.000000)">
            <g id="无数据" transform="translate(912.000000, 434.000000)">
                <rect id="矩形" fill="#000000" fill-rule="nonzero" opacity="0" x="0" y="0" width="98" height="98"></rect>
                <path d="M46.5628551,19.3719415 C46.5628551,20.6817843 45.4914363,21.7421834 44.1738575,21.7421834 L34.6151075,21.7421834 C33.9813584,21.7426112 33.3734006,21.493095 32.9250061,21.0485366 C32.4770285,20.6038204 32.2251235,20.0008344 32.2245874,19.3719415 C32.2245874,18.0624764 33.2949596,17 34.6152027,17 L44.1739526,17 C45.4914363,16.9999055 46.5628551,18.0624764 46.5628551,19.3719415 L46.5628551,19.3719415 Z" id="路径" fill="#F6FAFE"></path>
                <path d="M59.5727918,19.3719415 C59.5727918,20.6817843 58.8196585,21.7421828 57.8903026,21.7421828 L51.1661501,21.7421828 C50.2357475,21.7421828 49.4836609,20.6808398 49.4836609,19.3719415 C49.4836609,18.0624764 50.2356523,17 51.1661501,17 L57.8903026,17 C58.8196585,16.9999055 59.5727918,18.0624764 59.5727918,19.3719415 Z" id="路径" fill="#F6FAFE"></path>
                <path d="M74.175679,28.9912772 C74.175679,29.725524 73.8819865,30.4297274 73.358848,30.9488298 C72.8357095,31.4679321 72.1261726,31.7593683 71.3864693,31.7589677 L43.7737406,31.7589677 C42.234361,31.7589677 40.9862436,30.5200569 40.9862436,28.9913716 C40.9862436,27.463442 42.2344561,26.2244368 43.7737406,26.2244368 L71.3865644,26.2244368 C72.1261712,26.2240789 72.8356194,26.5154207 73.3587935,27.0343523 C73.8817172,27.5533449 74.175679,28.2572587 74.175679,28.9912772 L74.175679,28.9912772 Z" id="路径" fill="#F6FAFE"></path>
                <path d="M81.6104314,38.874036 C81.6104314,40.3300886 80.4215942,41.5107229 78.9542452,41.5107229 L37.2692956,41.5107229 C35.8024223,41.5107229 34.6135851,40.3306553 34.6135851,38.8746027 C34.6135851,37.4191168 35.8025175,36.238577 37.2692956,36.238577 L78.9532936,36.238577 C80.4200718,36.238577 81.6094799,37.4181723 81.6104314,38.874036 Z" id="路径" fill="#F6FAFE"></path>
                <path d="M84,48.2315543 C84,48.965687 83.7064174,49.669796 83.1835902,50.1890459 C82.6608223,50.7083604 81.9515247,51.0000985 81.2119321,51 L73.5104668,51 C71.9700405,51 70.721828,49.7605229 70.721828,48.2320265 C70.721828,46.7033413 71.9699453,45.4638642 73.5104668,45.4638642 L81.2119321,45.4638642 C81.9512682,45.4638642 82.6604409,45.7555281 83.1835902,46.2742516 C83.706238,46.7935432 84,47.497518 84,48.2315543 Z" id="路径" fill="#F6FAFE"></path>
                <path d="M68.5995433,48.2315543 C68.5995433,49.7609007 66.7449229,51 64.4519343,51 L11.1446592,51 C8.85576217,51 7,49.7621285 7,48.2315543 C7,46.7027746 8.85566702,45.4638642 11.1446592,45.4638642 L64.4519343,45.4638642 C66.7449229,45.4639587 68.5995433,46.702869 68.5995433,48.2315543 L68.5995433,48.2315543 Z" id="路径" fill="#F6FAFE"></path>
                <path d="M52.0798654,59.2579001 C52.0798654,60.1224045 51.7440246,60.9515454 51.1462049,61.563187 C50.5480571,62.1745023 49.7367787,62.5179411 48.8908506,62.5179411 L3.18900308,62.5179411 C2.04988985,62.5178155 0.997327002,61.8967903 0.427634347,60.8886991 C-0.142544782,59.8805511 -0.142544782,58.637974 0.427634347,57.6298259 C0.997052405,56.6213778 2.04972463,56.0000655 3.18900308,56 L48.8908506,56 C49.7365258,55.9998632 50.5476092,56.3430944 51.1456335,56.9541703 C51.7438659,57.5649412 52.0798654,58.3937133 52.0798654,59.2579001 L52.0798654,59.2579001 Z M93,70.7705158 C92.9994287,72.5539042 91.5852734,73.9994161 89.8401235,74 L51.7858171,74 C50.0724715,73.9543594 48.7073561,72.5216931 48.7073561,70.7705158 C48.7073561,69.0192413 50.0724715,67.5868669 51.7858171,67.5410317 L89.8391712,67.5410317 C91.584226,67.5420048 92.9989525,68.9872248 93,70.7705158 L93,70.7705158 Z" id="形状" fill="#F6FAFE"></path>
                <path d="M87.2029707,80.5002087 C87.2029707,81.1637817 86.9617438,81.8001522 86.532304,82.2691178 C86.1026898,82.7374601 85.5206463,83.0003197 84.9139312,83 L42.2864593,83 C41.0236793,83 40,81.8807977 40,80.5002087 C40,79.1196196 41.0236793,78 42.2864593,78 L84.9140267,78 C86.1782401,78 87.2029707,79.1189928 87.2029707,80.5002087 Z M96,80.5002087 C96,81.8801709 94.9767985,82.9993726 93.7140185,83 L91.8882723,83 C90.6249189,83 89.6012396,81.8807977 89.6012396,80.5002087 C89.6012396,79.1196196 90.6249189,78 91.8882723,78 L93.713923,78 C94.9752695,78 96,79.1189928 96,80.5002087 Z" id="形状" fill="#F6FAFE"></path>
                <g id="项目云盘" transform="translate(25.000000, 26.000000)">
                    <path d="M7.42187499,6.93749998 L42.578125,6.93749998 C43.6328125,6.93749998 44.3359375,7.64062496 44.3359375,8.6953125 L44.3359375,35.0625 L5.66406251,35.0625 L5.66406251,8.6953125 C5.66406251,7.64062501 6.36718749,6.93749998 7.42187499,6.93749998 Z" id="路径" fill="#E2F1FF" fill-rule="nonzero"></path>
                    <rect id="矩形" fill="#E2F1FF" x="9" y="0" width="32" height="3"></rect>
                    <path d="M3.02734376,19.2421875 L14.1015625,19.2421875 L17.4414062,26.9765625 L32.3828125,26.9765625 L36.4257813,19.2421875 L46.9726562,19.2421875 C48.3789062,19.2421875 49.609375,20.4726562 49.609375,21.8789062 L49.609375,42.9726562 C49.609375,44.3789063 48.3789062,45.609375 46.9726562,45.609375 L3.02734376,45.609375 C1.62109375,45.609375 0.390625,44.3789063 0.390625,42.9726562 L0.390625,21.8789062 C0.566406257,20.4726562 1.62109375,19.2421875 3.02734376,19.2421875 Z" id="路径" stroke="#A5D2FF" fill="#FFFFFF" fill-rule="nonzero"></path>
                    <rect id="矩形" fill="#EDF6FF" x="9" y="35" width="32" height="3"></rect>
                </g>
                <path d="M44.122,43 L44.122,39.868 L44.146,39.868 L46.288,43 L46.972,43 L46.972,38.716 L46.264,38.716 L46.264,41.806 L46.24,41.806 L44.122,38.716 L43.42,38.716 L43.42,43 L44.122,43 Z M49.594,43.084 C50.158,43.084 50.596,42.94 50.908,42.652 C51.22,42.356 51.376,41.93 51.376,41.374 L51.376,41.374 L51.376,38.716 L50.674,38.716 L50.674,41.386 C50.674,41.75 50.588,42.024 50.416,42.208 C50.24,42.384 49.966,42.472 49.594,42.472 C49.214,42.472 48.94,42.384 48.772,42.208 C48.6,42.032 48.514,41.758 48.514,41.386 L48.514,41.386 L48.514,38.716 L47.812,38.716 L47.812,41.374 C47.812,41.93 47.97,42.358 48.286,42.658 C48.59,42.942 49.026,43.084 49.594,43.084 Z M55.228,43 L55.228,42.4 L52.912,42.4 L52.912,38.716 L52.216,38.716 L52.216,43 L55.228,43 Z M58.78,43 L58.78,42.4 L56.464,42.4 L56.464,38.716 L55.768,38.716 L55.768,43 L58.78,43 Z" id="NULL" fill="#65A4E2" fill-rule="nonzero"></path>
            </g>
        </g>
    </g>
</svg>
